X:5
T:Green Hills of Tyrol
C:J. MacLeod
M:3/4
Q:1/4=56
K:D
e4
|:{/g}A3/2B/2{/GdG}c2{/gcd}c1{/e}A1|{/g}c1{/Gdc}d1{/gef}e2{/A}e1f1|{/gcd}c1f1 {/gef}e3/2c/2{/g}B2|{/GdGe}B1f1 {/gef}e3/2c/2{/G}A2|!
{/g}A3/2B/2{/GdG}c2{/gcd}c1{/e}A1|{/g}c1{/Gdc}d1{/gef}e2{/A}e1f1|{/gcd}c1f1 {/gef}e3/2c/2{/g}B2|{/GdGe}B1A1 {/gcd}c3/2B/2{/G}A2:|!
|:{/gcd}c1e1{/ag}a2{/g}a2|{/f}g1f1 {/gfg}f1e1{/A}e2|{/g}e3/2f/2 {/gef}e1d1{/gdG}d2|{/g}d3/2e/2 {/gde}d1c1{/GdG}c2|!
{/gcd}c1e1{/ag}a2{/g}a2|{/f}g1f1 {/gfg}f1e1{/A}e2|{/g}e3/2f/2{/gef}e2{/A}e3/2d/2|{/g}c3/2d/2{/gef}e2{/A}e2:|

